graphics/elements/molecules/gdq-break/img/host-icon.svg

<svg width="66" height="82" viewBox="0 0 66 82" version="1.1" xmlns="http://www.w3.org/2000/svg" xmlns:xlink="http://www.w3.org/1999/xlink">
	<g data-name="Canvas" transform="translate(-2081 -832)" fill="none">
		<g data-name="Vector 2" filter="url(#filter0_d)">
			<g transform="translate(2094 845)">
				<use xlink:href="#path0" fill="url(#paint0_linear)" fill-opacity="0.5"/>
			</g>
			<g transform="translate(2094 845)">
				<use xlink:href="#path1"/>
			</g>
		</g>
		<g data-name="hardware-keyboard-voice">
			<g data-name="keyboard-voice">
				<g data-name="Vector">
					<g transform="translate(2104 860)">
						<use xlink:href="#path2" fill="#ffffff"/>
					</g>
				</g>
			</g>
		</g>
	</g>
	<defs>
		<filter id="filter0_d" x="2081.5" y="832.5" width="65" height="81" filterUnits="userSpaceOnUse" color-interpolation-filters="sRGB">
			<feFlood flood-opacity="0" result="BackgroundImageFix"/>
			<feColorMatrix in="SourceAlpha" type="matrix" values="1 0 0 0 0 0 0 0 0 0 0 0 0.6 0 0 0 0 0 1 0"/>
			<feOffset/>
			<feGaussianBlur stdDeviation="6"/>
			<feColorMatrix type="matrix" values="1 0 0 0 0 0 0 0 0 0 0 0 0.6 0 0 0 0 0 1 0"/>
			<feBlend mode="normal" in2="BackgroundImageFix" result="effect1_dropShadow"/>
			<feBlend mode="normal" in="SourceGraphic" in2="effect1_dropShadow" result="shape"/>
		</filter>

		<linearGradient id="paint0_linear" x2="1" gradientUnits="userSpaceOnUse" gradientTransform="matrix(0 56 -40 0 40 0)">
			<stop stop-color="#FF0099"/>
			<stop offset="1" stop-color="#FF0099" stop-opacity="0.5"/>
		</linearGradient>

		<path id="path0" d="M 0 0L 0 56L 40 56L 40 0L 0 0Z"/>
		<path id="path1" d="M 0 56L 0 0L 40 0L 40 56L 0 56Z"/>
		<path id="path2" d="M 10 17.6842C 12.3714 17.6842 14.2714 15.7095 14.2714 13.2632L 14.2857 4.42105C 14.2857 1.97474 12.3714 0 10 0C 7.62857 0 5.71429 1.97474 5.71429 4.42105L 5.71429 13.2632C 5.71429 15.7095 7.62857 17.6842 10 17.6842ZM 17.5714 13.2632C 17.5714 17.6842 13.9429 20.7789 10 20.7789C 6.05714 20.7789 2.42857 17.6842 2.42857 13.2632L 0 13.2632C 0 18.3032 3.88571 22.4442 8.57143 23.1663L 8.57143 28L 11.4286 28L 11.4286 23.1663C 16.1143 22.4589 20 18.3032 20 13.2632L 17.5714 13.2632Z"/>

	</defs>
</svg>

<?xml version="1.0" encoding="utf-8"?>
<!-- Generator: Adobe Illustrator 22.1.0, SVG Export Plug-In . SVG Version: 6.00 Build 0)  -->
<svg version="1.1" id="Layer_1" xmlns="http://www.w3.org/2000/svg" xmlns:xlink="http://www.w3.org/1999/xlink" x="0px" y="0px"
	 viewBox="0 0 66 82" style="enable-background:new 0 0 66 82;" xml:space="preserve">
<style type="text/css">
	.st0{fill:url(#path0_2_);fill-opacity:0.5;}
	.st1{fill:#FFFFFF;}
</style>
<g transform="translate(-2081 -832)">
	
		<linearGradient id="path0_2_" gradientUnits="userSpaceOnUse" x1="1701.8909" y1="1303.15" x2="1702.8909" y2="1303.15" gradientTransform="matrix(0 55 40 0 -50012 -92758)">
		<stop  offset="0" style="stop-color:#86CFF3;stop-opacity:0.5"/>
		<stop  offset="1" style="stop-color:#3879A1"/>
	</linearGradient>
	<path id="path0_1_" class="st0" d="M2094,846v55h40v-55H2094z"/>
	<g>
		<g>
			<g>
				<g transform="translate(2104 860)">
					<g>
						<path id="path2" class="st1" d="M10,17.7c2.4,0,4.3-2,4.3-4.4l0-8.8C14.3,2,12.4,0,10,0C7.6,0,5.7,2,5.7,4.4v8.8
							C5.7,15.7,7.6,17.7,10,17.7z M17.6,13.3c0,4.4-3.6,7.5-7.6,7.5c-3.9,0-7.6-3.1-7.6-7.5H0c0,5,3.9,9.2,8.6,9.9V28h2.9v-4.8
							c4.7-0.7,8.6-4.9,8.6-9.9H17.6z"/>
					</g>
				</g>
			</g>
		</g>
	</g>
</g>
</svg>
